X:1
T:Gelobet seist Du, Jesu Christ (BWV 723)
C:J.S Bach
%%staves [1 (2 3) 4]
M:C
Q:1/4=84
K:C
%-- 1
V:1 name="Trompette 8"
z8|z8|z8|z8|z8|z8|
V:2 name="Fonds 8,4"
D4 D2D2|E2D2 G2A2|G3G D2E2|^F2G=F E2F2|E3F/E/ D3E/D/|C3D/C/ B,CDE|
V:3
z8|z8|z2G,2 G,2G,2|A,2G,2 C2D2|CG,C2- C^F,B,2-|B,E,A,2 G,A,B,G,|
V:4 name="16, 8"
z8|z8|z8|z8|z8|z8|
%-- 7
V:1
z8|z8|z8|z8|G8|G4 G4|
V:2
^FDG4 F2|G2^F2 G2=F2-|F2E2 D4|C3D/E/ F2ED|E2D2 E4|D2E2 D2ED|
V:3
A,2B,2 A,2D2-|D^CD=C B,2C2|B,2C4 B,2-|B,2A,4 B,2|C2D2 C4|B,2C2 G,4-|
V:4
D,4 D,2D,2|E,2D,2 G,2A,2|G,4- G,3F,|E,2F,2 D,2G,2|C,3B,, C,D,E,F,|G,2C,2 B,,G,,C,B,,|
%-- 13
V:1
A4 G4|c4 d4|c8|z8|z8|z8|
V:2
C2DC B,2CD|E2F2- F2GF|EGFE F2ED|E2G2 A2G2|F2EF G2F2|E4 D3C|
V:3
G,2^F,2G,4|zG,CB, A,2B,2|C4 A,2B,2|C6 C2|D2C2 B,2A,B,|CB,A,G, ^F,4|
V:4
A,,2D,2 E,2D,2|C,6G,2|C,8-|C,2z2 z4|z8|z4 B,,2D,2|
%-- 19
V:1
z8|B4 d4|e4 d4|B4 A4|G4 z4|z8|
V:2
B,CD4 C2|B,2B2 ^F2G2|G4 A2G^F|G2D2 ED/E/C2|B,4 z4|z8|
V:3
G,2^F,2 G,3F,|G,2z2 z4|zG,CB, A,4|G,4- G,3^F,|G,2G,2 C2B,2|D4 A,B,CD|
V:4
E,2D,C, B,,2A,,2|G,,2G,A, B,A,G,=F,|E,4 ^F,2D,2|G,3B,, C,B,,A,,D,|G,,4 z4|z2D,2 G,2^F,2|
%-- 25
V:1
z8|z8|z8|z4 G4|c4 B4|d4 A4|
V:2
z8|z2E2 G2^F2|A2E2 D4|CEDC B,4|E8|D4- DEDC|
V:3
B,2E4 D2|C4 D4-|D2C4 B,2|A,4 z2G,2-|G,2A,4 G,2-|G,G,^F,E, F,4|
V:4
G,3^F,/E,/ F,E,F,G,|A,4 B,4|^F,2A,2 F,2G,2-|G,2^F,2 G,=F,E,D,|C,3D, E,4|B,,3C, D,4|
%-- 31
V:1
G4 E4|D8|z8|z8|z8|z8|
V:2
B,DCB, C4|A,2B,2 A,3A,|B,2B,2 B,2C2|D2CB, A,2C2|B,4 A,3B,|C4 C2D2|
V:3
G,4- G,G,^F,E,|^F,2G,4 F,2|G,3D, G,2^F,E,|D,2E,2 ^F,2E,F,|G,D,G,4 ^F,2|E,2^F,G, A,2G,F,|
V:4
G,,4 A,,2C,2-|C,2B,,C, D,4|G,,4 z4|z8|z4 D,,4|A,,2A,,2 A,,2B,,2|
%-- 37
V:1
z4 D4|A4 A4|A4 B4|c4 A4|G4 B4|A8|
V:2
C4 B,2D2-|D2^CB, C4|D6 E2-|E4 DEDC|B,2E2 D3^C/D/|E2D2 EG^FE|
V:3
E,2^F,2 G,F,E,D,|E,4- E,G,^F,E,|^F,2A,4 ^G,2|A,=G,^F,E, F,4|G,4 G,4-|G,2^F,2 E,2A,2-|
V:4
C,2B,,A,, G,,2B,,2|A,,8|D,3=C, B,,2E,2|A,,4 D,4|E,3C, G,2B,,2|^C,2D,4 C,2|
%-- 43
V:1
z8|z8|G4 G4|G4 G4|G8-|G8||
V:2
^F4 E4|D4 CEDC|B,2C2 D2C2|D4- DFED|E8|D8||
V:3
A,2D4 =C2-|C2B,2 A,4|G,4- G,F,E,2|D,2G,2- G,4|zG,F,G, C,CB,A,|B,8||
V:4
D,E,^F,G, A,B,=CE,|^F,D,G,4 =F,2-|F,2E,2 B,,2C,2-|C,2B,,A,, B,,4|C,8|[G,,8G,8]||
